packages/foundations/assets/icons/functional/images/technology/power_socket_16.svg

<svg width="16" height="16" viewBox="0 0 16 16" fill="none" xmlns="http://www.w3.org/2000/svg">
<g clip-path="url(#clip0_187_610)">
<path fill-rule="evenodd" clip-rule="evenodd" d="M1.59998 13.6V2.40001C1.59998 1.94737 1.94734 1.60001 2.39998 1.60001H13.6C14.0526 1.60001 14.4 1.94737 14.4 2.40001V5.59609C14.4 6.04881 14.0526 6.40001 13.6 6.40001C13.1629 6.40001 12.8 6.04881 12.8 5.59609V3.20001H3.19998V12.8H6.39998C6.83702 12.8 7.2039 13.1629 7.2039 13.6C7.2039 14.0526 6.83702 14.4 6.39998 14.4H2.39998C1.94734 14.4 1.59998 14.0526 1.59998 13.6ZM4.0039 8.01561C4.0039 5.79905 5.78342 4.00393 7.98438 4.00393C9.1239 4.00393 10.2321 4.48785 10.997 5.36193C11.1376 5.51809 11.2 5.70537 11.2 5.87705C11.2 6.31417 10.8253 6.68881 10.4039 6.68881C10.1697 6.68881 9.95118 6.59513 9.7951 6.40785C9.34238 5.89273 8.68678 5.59609 8.01558 5.59609C6.67318 5.59609 5.59606 6.68881 5.59606 8.01561C5.59606 8.68681 5.8927 9.34241 6.40782 9.79513C6.5795 9.95121 6.68878 10.1698 6.68878 10.4039C6.68878 10.8722 6.31414 11.2 5.8927 11.2C5.68974 11.2 5.50238 11.1219 5.3619 10.997C4.48766 10.2321 4.0039 9.13953 4.0039 8.01561ZM6.39998 8.00393C6.39998 7.56473 6.74503 7.20393 7.19998 7.20393C7.63917 7.20393 7.99998 7.56473 7.99998 8.00393C7.99998 8.44312 7.63917 8.80393 7.19998 8.80393C6.74503 8.80393 6.39998 8.44312 6.39998 8.00393ZM10.1073 7.23513C10.3102 7.23513 10.5132 7.31321 10.6693 7.46929L11.2 8.00001L11.5121 7.70345C11.6683 7.54729 11.8712 7.48489 12.0741 7.48489C12.277 7.48489 12.48 7.54729 12.6361 7.70345L13.5727 8.62441C14.119 9.18633 14.3844 9.92001 14.3844 10.6693C14.3844 11.3405 14.1502 12.0273 13.6819 12.5737L14.1502 13.0107C14.3063 13.1668 14.4 13.3854 14.4 13.6039C14.4 14.0566 14.0409 14.4 13.5883 14.4C13.4009 14.4 13.1981 14.3219 13.0419 14.1814L12.5581 13.7132C11.9961 14.1658 11.3093 14.3844 10.5756 14.3844C9.85757 14.3844 9.1551 14.0878 8.63998 13.5727L7.70342 12.6361C7.54726 12.4956 7.46926 12.2927 7.46926 12.0742C7.46926 11.8556 7.54726 11.6527 7.70342 11.5122L7.99998 11.2156L7.43806 10.6537C7.2663 10.4976 7.1727 10.2946 7.1727 10.0605C7.1727 9.62345 7.53166 9.26441 7.96878 9.26441C8.18726 9.26441 8.40582 9.34241 8.5619 9.51417L9.1239 10.0761L10.0761 9.13953L9.52974 8.59321C9.37366 8.43705 9.29558 8.23417 9.29558 8.03121C9.29558 7.82833 9.37366 7.62537 9.52974 7.46929C9.68582 7.31321 9.88877 7.23513 10.1073 7.23513ZM12.0741 9.38929L9.38926 12.0742L9.7639 12.4332C10.0137 12.683 10.3414 12.7922 10.6693 12.7922C10.9971 12.7922 11.3249 12.6846 11.5795 12.4591L12.3551 11.6839C12.6517 11.403 12.7921 11.0439 12.7921 10.6693C12.7921 10.3414 12.6829 10.0137 12.4488 9.76393L12.0741 9.38929Z" fill="#1A1C1F"/>
</g>
<defs>
<clipPath id="clip0_187_610">
<rect width="16" height="16" fill="white"/>
</clipPath>
</defs>
</svg>

<svg xmlns="http://www.w3.org/2000/svg" width="16" height="16" fill="none"><g clip-path="url(#a)"><path fill="#1A1C1F" fill-rule="evenodd" d="M1.6 13.6V2.4c0-.453.347-.8.8-.8h11.2c.453 0 .8.347.8.8v3.196a.79.79 0 0 1-.8.804.8.8 0 0 1-.8-.804V3.2H3.2v9.6h3.2a.81.81 0 0 1 .804.8.8.8 0 0 1-.804.8h-4a.787.787 0 0 1-.8-.8m2.404-5.584c0-2.217 1.78-4.012 3.98-4.012 1.14 0 2.248.484 3.013 1.358.14.156.203.343.203.515 0 .437-.375.812-.796.812a.78.78 0 0 1-.609-.281 2.38 2.38 0 0 0-1.78-.812 2.42 2.42 0 0 0-2.419 2.42c0 .67.297 1.326.812 1.78a.83.83 0 0 1 .28.608.79.79 0 0 1-.795.796.8.8 0 0 1-.531-.203 3.97 3.97 0 0 1-1.358-2.981M6.4 8.004c0-.44.345-.8.8-.8.44 0 .8.36.8.8s-.36.8-.8.8c-.455 0-.8-.36-.8-.8m3.707-.769c.203 0 .406.078.562.234L11.2 8l.312-.297a.78.78 0 0 1 .562-.218c.203 0 .406.062.562.218l.937.921c.546.562.811 1.296.811 2.045 0 .672-.234 1.358-.702 1.905l.468.437c.156.156.25.374.25.593 0 .453-.36.796-.812.796a.84.84 0 0 1-.546-.219l-.484-.468c-.562.453-1.249.671-1.982.671-.718 0-1.42-.296-1.936-.811l-.937-.937a.74.74 0 0 1-.234-.562c0-.218.078-.421.234-.562L8 11.216l-.562-.562a.78.78 0 0 1-.265-.594.8.8 0 0 1 .796-.796.8.8 0 0 1 .593.25l.562.562.952-.936-.546-.547a.79.79 0 0 1 0-1.124.8.8 0 0 1 .577-.234m1.967 2.154L9.39 12.074l.375.36c.25.249.577.358.905.358s.656-.107.91-.333l.776-.775c.297-.281.437-.64.437-1.015 0-.328-.11-.655-.343-.905z" clip-rule="evenodd"/></g><defs><clipPath id="a"><path fill="#fff" d="M0 0h16v16H0z"/></clipPath></defs></svg>
